!!!!SEGMENT: pl-kk--kk-i-493--003_anonim--adjuva-nos-deus.krn
!!!cenid: 17xx:1837
!!!COM: Anonim
!!!COM-rismID: pe30004985
!!!CDT:
!!!CNT:
!!!OTL: Adjuva nos Deus
!!!PDT:
!!!AGN:
!!!SMS-siglum: PL-Kk
!!!SMS-shelfmark: Kk.I.493
!!!SMS-shelfwork: 003 W
!!!SMS-variant:
!!!SMS-altvar:
!!!NIFC-rismSourceID: 1001136770
!!!NIFC-islandoraID: pl-kk:14560
!!!URL-pdf-islandora: https://repozytorium.nifc.pl/islandora/object/pl-kk%3A14560/datastream/PDF/view
!!!URL-scan: https://polish.musicsources.pl/pl/lokalizacje/galeria/rekopisy/6101 @EN{Scan on Polish Music Herritage in Open Access Website} @PL{Skany w portalu Dziedzictwo Muzyki Polskiej w otwartym dostępie}
!!!ONB-nifc:
!!!AIN: 1 alto 1 empty 1 soprn 1 tenor
!!!key:
**kern	**text	**kern	**text	**kern	**text	**kern	**text
*part4	*part4	*part3	*part3	*part2	*part2	*part1	*part1
*staff4	*staff4	*staff3	*staff3	*staff2	*staff2	*staff1	*staff1
*Iempty	*	*Itenor	*	*Ialto	*	*Isoprn	*
*I"Baſso	*	*I"Tenore	*	*I"Alto	*	*I"Soprano	*
*I'B	*	*I'T	*	*I'A	*	*I'S	*
*clefF4	*	*clefC4	*	*clefC3	*	*clefC1	*
*k[<]	*	*k[<]	*	*k[<]	*	*k[<]	*
*C:	*	*C:	*	*C:	*	*C:	*
*M2/2	*	*M2/2	*	*M2/2	*	*M2/2	*
*met(c|)	*	*met(c|)	*	*met(c|)	*	*met(c|)	*
=1	=1	=1	=1	=1	=1	=1	=1
1C/	Ad-	1G/	Ad-	1e\	Ad-	1cc\	Ad-
=2	=2	=2	=2	=2	=2	=2	=2
*2\right	*	*	*	*2\right	*	*2\right	*
2.G\	-ju-	2.G/	-ju-	2.d\	-ju-	2cc\	-ju-
.	.	.	.	.	.	2b\	-va
4F\	-va	4G/	-va	4d\	-va	.	.
=3	=3	=3	=3	=3	=3	=3	=3
1E\	nos	2G/	nos	1e\	nos	1cc\	nos
*	*	*2\right	*	*	*	*	*
.	.	[<2c\	De-	.	.	.	.
=4	=4	=4	=4	=4	=4	=4	=4
2F\	De-	2c\]	.	2a\	De-	2.cc\	De-
2E\	-us	2c\	-us	2g\	-us	.	.
.	.	.	.	.	.	4cc\	-us
!LO:LB:g=original	!	!LO:LB:g=original	!	!	!	!LO:LB:g=original	!
=5	=5	=5	=5	=5	=5	=5	=5
2A\	sa-	2c\	sa-	2f\	sa-	2cc\	sa-
2G\	-lu-	2c\	-lu-	2e\	-lu-	2cc\	-lu-
!	!	!	!	!LO:LB:g=original	!	!	!
=6	=6	=6	=6	=6	=6	=6	=6
2F\	-ta-	2.A\	-ta-	2d\	-ta-	2cc\	-ta-
2F\	-ris	.	.	2d\	-ris	2cc\	-ris
.	.	4A\	-ris	.	.	.	.
=7	=7	=7	=7	=7	=7	=7	=7
1F#X\	nos-	1A\	nos-	1d\	nos-	1cc\	nos-
=8	=8	=8	=8	=8	=8	=8	=8
1G\	-ter	1G/	-ter	1d\	-ter	1b\	-ter
=9	=9	=9	=9	=9	=9	=9	=9
1G#X\	et	1B\	et	2r	.	1ee\	et
.	.	.	.	2e\	et	.	.
!LO:LB:g=original	!	!	!	!	!	!LO:LB:g=original	!
=10	=10	=10	=10	=10	=10	=10	=10
2A\	prop-	2c\	prop-	2e\	prop-	2cc\	prop-
2E\	-ter	2G#X/	-ter	2e\	-ter	2b\	-ter
!	!	!LO:LB:g=original	!	!LO:LB:g=original	!	!	!
=11	=11	=11	=11	=11	=11	=11	=11
2.F\	glo-	2.A\	glo-	2e\	glo-	2.a\	glo-
.	.	.	.	2d\	-ri-	.	.
4F\	-ri-	4A\	-ri-	.	.	4a\	-ri-
=12	=12	=12	=12	=12	=12	=12	=12
1E\	-am	2B\	-am	1e\	-am	1g#X\	-am.
.	.	[<2e\	no-	.	.	.	.
=13	=13	=13	=13	=13	=13	=13	=13
!LO:TX:b:t=2	!	!	!	!	!	!LO:TX:b:t=1	!
0r	.	4e\]	.	2r	.	1r	.
.	.	4d\	.	.	.	.	.
.	.	4c\	-mi-	[<2a\	no-	.	.
.	.	4B\	-nis	.	.	.	.
=14	=14	=14	=14	=14	=14	=14	=14
.	.	2.A/	tu-	4a\]	.	2r	.
.	.	.	.	4g\	.	.	.
.	.	.	.	4f\	-mi-	[<<2dd\	no-
.	.	4G/	.	4e\	-nis	.	.
!	!	!LO:LB:g=original	!	!LO:LB:g=original	!	!LO:LB:g=original	!
=15	=15	=15	=15	=15	=15	=15	=15
2r	.	2F/	-i.	2.d\	su-	4dd\]	.
.	.	.	.	.	.	4cc\	.
[<2G\	no-	2r	.	.	.	4b\	-mi-
.	.	.	.	4c\	-i	4a\	-nis
!LO:LB:g=original	!	!	!	!	!	!	!
=16	=16	=16	=16	=16	=16	=16	=16
4G\]	.	2r	.	2B/	no-	2.g/	su-
4F\	.	.	.	.	.	.	.
4E\	-mi-	[<2G/	no-	4c\	-mi-	.	.
4D\	-ni	.	.	4d\	-nis	4f/	-is
=17	=17	=17	=17	=17	=17	=17	=17
2.C/	su-	2G/]	.	2.e\	su-	4.e/	li-
.	.	.	.	.	.	8e/	-be-
.	.	4A\	-mi-	.	.	2g/	-ra
4BB/	-i	4B\	-nis	4d\	-i	.	.
=18	=18	=18	=18	=18	=18	=18	=18
1AA/	li-	2.c\	tu-	1e\	li-	2cc\	nos
.	.	.	.	.	.	[<<2cc\	li-
.	.	4B\	-i	.	.	.	.
!	!	!LO:LB:g=original	!	!LO:LB:g=original	!	!LO:LB:g=original	!
=19	=19	=19	=19	=19	=19	=19	=19
2D\	-be-	2A\	li-	2f#X\	-be-	2cc\]	.
2D\	-ra	4B\	-be-	2f#\	-ra	4dd\	-be-
.	.	4A\	-ra	.	.	4cc\	-ra
!LO:LB:g=original	!	!	!	!	!	!	!
=20	=20	=20	=20	=20	=20	=20	=20
1G\	nos	1G/	nos	1g\	nos	1b\	nos
=21	=21	=21	=21	=21	=21	=21	=21
!LO:TX:b:t=2	!	!	!	!LO:TX:a:t=2	!	!	!
0r	.	2B\	et	0r	.	2dd\	et
.	.	2B\	pro-	.	.	2dd\	pro-
=22	=22	=22	=22	=22	=22	=22	=22
.	.	2B\	-pi-	.	.	2dd\	-pi-
.	.	4A\	-ti-	.	.	4cc\	-ti-
.	.	4B\	-us	.	.	4dd\	-us
!	!	!LO:LB:g=original	!	!	!	!LO:LB:g=original	!
=23	=23	=23	=23	=23	=23	=23	=23
2E\	et	1c\	es-	2g\	et	1ee\	es-
2E\	pro-	.	.	2g\	pro-	.	.
=24	=24	=24	=24	=24	=24	=24	=24
2E\	-pi-	1c\	-to	2g\	-pi-	1cc\	-to
4D\	-ti-	.	.	4f\	-ti-	.	.
4E\	-us	.	.	4g\	-us	.	.
!	!	!	!	!LO:LB:g=original	!	!	!
=25	=25	=25	=25	=25	=25	=25	=25
1F\	es-	2r	.	1a\	es-	2r	.
.	.	2A\	pec-	.	.	2cc\	pec-
!LO:LB:g=original	!	!	!	!	!	!	!
=26	=26	=26	=26	=26	=26	=26	=26
2F\	-to	[<1A\	-ca-	2f\	-to	[<<1cc\	-ca-
2F\	pec-	.	.	2f\	pec-	.	.
=27	=27	=27	=27	=27	=27	=27	=27
2F#X\	-ca-	2A\]	.	2e-X\	-ca-	2cc\]	.
2F#\	-tis	2A\	-tis	2e-\	-tis	2cc\	-tis
!	!	!LO:LB:g=original	!	!	!	!LO:LB:g=original	!
=28	=28	=28	=28	=28	=28	=28	=28
!	!	!	!	!LO:SIC:s:=:v:2e-	!	!	!
1G\	nos-	1G/	nos-	2e\	nos-	2cc\	nos-
.	.	.	.	4d\	.	4b\	.
.	.	.	.	4c\	.	4a\	.
!	!	!	!	!LO:LB:g=original	!	!	!
=29	=29	=29	=29	=29	=29	=29	=29
1GG/	-tris	1G/	-tris	1d\	-tris	1b\	-tris
=30	=30	=30	=30	=30	=30	=30	=30
2G\	prop-	2d\	prop-	2g\	prop-	2b\	prop-
2F\	-ter	2d\	-ter	2g\	-ter	2b\	-ter
!LO:LB:g=original	!	!	!	!	!	!	!
=31	=31	=31	=31	=31	=31	=31	=31
2E\	no-	2c\	no-	2g\	no-	2cc\	no-
2D\	-men	2B\	-men	2g\	-men	2dd\	-men
!	!	!	!	!	!	!LO:LB:g=original	!
=32	=32	=32	=32	=32	=32	=32	=32
2C/	prop-	2c\	prop-	2g\	prop-	2ee\	prop-
2BB/	-ter	2d\	-ter	2g\	-ter	2ff\	-ter
!	!	!LO:LB:g=original	!	!	!	!	!
=33	=33	=33	=33	=33	=33	=33	=33
2C/	no-	2c\	no-	2g\	no-	2ee\	no-
2E\	-men	2c\	-men	2g\	-men	2ee\	-men
!	!	!	!	!LO:LB:g=original	!	!	!
=34	=34	=34	=34	=34	=34	=34	=34
[<1G\	tu-	2c\	tu-	[<1g\	tu-	[<<1dd\	tu-
.	.	4B\	.	.	.	.	.
.	.	4A\	.	.	.	.	.
=35	=35	=35	=35	=35	=35	=35	=35
1G\]	.	1B\	.	2g\]	.	1dd\]	.
.	.	.	.	2f\	.	.	.
!LO:LB:g=original	!	!	!	!	!	!	!
=36	=36	=36	=36	=36	=36	=36	=36
1C/	-um	2c\	-um	1e\	-um	1cc\	-um
.	.	[<2c\	prop-	.	.	.	.
!	!	!LO:LB:g=original	!	!	!	!LO:LB:g=original	!
=37	=37	=37	=37	=37	=37	=37	=37
2E\	prop-	2c\]	.	2g\	prop-	2cc\	prop-
2E\	-ter	2c\	-ter	2g\	-ter	2b-X\	-ter
=38	=38	=38	=38	=38	=38	=38	=38
2F\	no-	2c\	no-	2f\	no-	2a\	no-
2C/	-men	2c\	-men	2e\	-men	2g\	-men
!	!	!	!	!LO:LB:g=original	!	!	!
=39	=39	=39	=39	=39	=39	=39	=39
0F\	tu-	0c\	tu-	0f\	tu-	0a\	tu-
=40	=40	=40	=40	=40	=40	=40	=40
0C/	-um.	0c\	-um.	0e\	-um.	0g\	-um.
==	==	==	==	==	==	==	==
*-	*-	*-	*-	*-	*-	*-	*-
!!!system-decoration: [(s1,s2,s3,s4)]
!!!RDF**kern: > = above
!!!RDF**kern: < = below
!!!EED: Leszek Kubiak
!!!EEV: 2021-01-02
!!!ENC: Tomasz Grochalski
!!!END: 2020-12-30
